X:2592
T:Cape Breton Fiddler's Welcome to Shetland, The
T:Cape Breton Fiddlers' Welcome to the Shetland Isles, The
R:reel
Z:id:hn-reel-330
M:C|
K:A
AE~E2 dcBc|~A3e fece|fBBA ~B3A|B2fe fBge|
acef eA~A2|cBAF eAce|~f3d eaaf|1 ecdB ~A3B:|2 ecdB ~A3e||
|:aee^d efe=d|ce~e2 fece|bffe f2ef|defd Befe|
aee^d efe=d|ce~e2 fece|1 ~f3e afed|cABc ~A3e:|2 ~f3e afec|Bagf edcB||


